!!!!SEGMENT: pl-wtm--r-2545--002_hertz-michal--firdusi-no-2-piosnka-harisa.krn
!!!cenid: 18xx:3104
!!!COM: Hertz, Michał
!!!COM-rismid: pe41023359
!!!CDT: 1844/09/28-~1918
!!!CNT: Polish
!!!GTL: Firdusi
!!!OTL: No. 2 – Piosnka Harisa
!!!PDT:
!!!AGN:
!!!SMS-siglum: PL-Wtm
!!!SMS-shelfmark: R 2545
!!!SMS-shelfwork: 002 G
!!!SMS-variant:
!!!SMS-altvar:
!!!NIFC-rismid: 1001081950
!!!OMD: Allegretto. [quarter-dot]=80
!!!system-decoration: [(s1,s2)][(s3)][(s4)]{(s5,s6)}[(s7)]{(s8,s9)}
!!!AIN: 1 alto 1 bass 1 cello 1 cor 3 empty 1 flt 1 vox
!!!key:
**kern	**dynam	**kern	**dynam	**kern	**dynam	**kern	**dynam	**kern	**dynam	**kern	**text	**dynam	**kern	**dynam	**kern	**dynam	**kern	**dynam
*part9	*part9	*part8	*part8	*part7	*part7	*part6	*part6	*part5	*part5	*part4	*part4	*part4	*part3	*part3	*part2	*part2	*part1	*part1
*staff9	*	*staff8	*	*staff7	*	*staff6	*	*staff5	*	*staff4	*staff4	*	*staff3	*	*staff2	*	*staff1	*
*Ibass	*	*Icello	*	*Ialto	*	*Iempty	*	*Iempty	*	*Ivox	*	*	*Icor	*	*Iempty	*	*Iflt	*
*I"Basso	*	*I"Cello	*	*I"Alto	*	*I"Viol2°	*	*I"Viol1°	*	*I"[Canto]	*	*	*I"Corno in F	*	*I"Clarinetto in B	*	*I"Flauto	*
*I'cb	*	*I'vlc	*	*I'vla	*	*I'vl 2	*	*I'vl 1	*	*I'[C]	*	*	*I'cor in F	*	*I'Cl in B	*	*I'fl	*
*clefF4	*	*clefF4	*	*clefC3	*	*clefG2	*	*clefG2	*	*clefG2	*	*	*clefG2	*	*clefG2	*	*clefG2	*
*ITrd0c0	*	*	*	*	*	*	*	*	*	*	*	*	*ITrd4c7	*	*ITrd1c2	*	*	*
*k[f#]	*	*k[f#]	*	*k[f#]	*	*k[f#]	*	*k[f#]	*	*k[f#]	*	*	*k[f#]	*	*k[f#]	*	*k[f#]	*
*G:	*	*G:	*	*G:	*	*G:	*	*G:	*	*G:	*	*	*G:	*	*G:	*	*G:	*
*M6/8	*	*M6/8	*	*M6/8	*	*M6/8	*	*M6/8	*	*M6/8	*	*	*M6/8	*	*M6/8	*	*M6/8	*
*MM120	*	*MM120	*	*MM120	*	*MM120	*	*MM120	*	*MM120	*	*	*MM120	*	*MM120	*	*MM120	*
=1	=1	=1	=1	=1	=1	=1	=1	=1	=1	=1	=1	=1	=1	=1	=1	=1	=1	=1
!	!	!LO:TX:a:Bi:t=Sempre legato	!	!LO:TX:a:Bi:t=Sempre legato	!	!	!	!	!	!	!	!	!	!	!	!	!	!
!	!	!	!	!	!	!	!	!LO:TX:a:Bi:t=Allegretto. [quarter-dot]=80	!	!	!	!	!	!	!	!	!	!
!	!	!	!	!	!LO:DY:b:rj	!	!	!	!	!	!	!	!	!	!	!	!	!
4r	.	(>8GG/	f	(<8G/	f	8r	.	8r	.	2.r	.	.	2.ryy	.	2.ryy	.	4r	.
.	.	4D\	.	[<4D/)	.	8r	.	8r	.	.	.	.	.	.	.	.	.	.
!	!	!	!	!	!	!	!LO:DY:b:rj	!	!LO:DY:b:rj	!	!	!	!	!	!	!	!	!
8r	.	.	.	.	.	[<8B/	f	[<8g/	f	.	.	.	.	.	.	.	8r	.
!	!LO:DY:b:rj	!	!	!	!	!	!	!	!	!	!	!	!	!	!	!	!	!LO:DY:b
8D\	p	4DD/	.	4D/]	.	4.B/]	.	4.g/]	.	.	.	.	.	.	.	.	16r	p
!	!	!	!	!	!	!	!	!	!	!	!	!	!	!	!	!	!	!LO:HP:b
.	.	.	.	.	.	.	.	.	.	.	.	.	.	.	.	.	16dd'>\LL	<
8r	.	.	.	.	.	.	.	.	.	.	.	.	.	.	.	.	16ee'>\	.
.	.	.	.	.	.	.	.	.	.	.	.	.	.	.	.	.	16ff#'>\	.
8r	.	8D\)	.	(<8D/	.	.	.	.	.	.	.	.	.	.	.	.	16gg'>\	.
.	.	.	.	.	.	.	.	.	.	.	.	.	.	.	.	.	16aa'>\JJ	.
=2	=2	=2	=2	=2	=2	=2	=2	=2	=2	=2	=2	=2	=2	=2	=2	=2	=2	=2
!	!	!	!	!	!LO:DY:b:rj	!	!	!	!	!	!	!	!	!	!	!	!	!
4r	.	8GG/	.	8G/	p	8r	.	8r	.	4r	.	.	2.ryy	.	2.ryy	.	(>16bb\LL	.
.	.	.	.	.	.	.	.	.	.	.	.	.	.	.	.	.	16ddd\JJ)	[
.	.	4D\	.	[<4D/)	.	8r	.	8r	.	.	.	.	.	.	.	.	8r	.
!	!	!	!	!	!	!	!	!	!LO:DY:b:rj	!	!	!	!	!	!	!	!	!
8r	.	.	.	.	.	[<8B/	.	[<8g/	p	8r	.	.	.	.	.	.	8r	.
8D\	.	4DD/	.	4D/]	.	4.B/]	.	4.g/]	.	8r	.	.	.	.	.	.	4r	.
8r	.	.	.	.	.	.	.	.	.	8r	.	.	.	.	.	.	.	.
!	!	!	!	!	!	!	!	!	!	!	!	!LO:DY:b:rj	!	!	!	!	!	!
8r	.	8D\	.	8D/	.	.	.	.	.	8d/	Po-	p	.	.	.	.	8r	.
=3	=3	=3	=3	=3	=3	=3	=3	=3	=3	=3	=3	=3	=3	=3	=3	=3	=3	=3
4r	.	8GG/	.	8G/	.	8r	.	8r	.	4g/	-kar-	.	2.ryy	.	2.ryy	.	2.r	.
.	.	4D\	.	[>4D/	.	8r	.	8r	.	.	.	.	.	.	.	.	.	.
8r	.	.	.	.	.	[<8B/	.	8g/	.	8a/	-mem	.	.	.	.	.	.	.
8D\	.	4DD/	.	4D/]	.	4.B/]	.	4.g/	.	4a/	won-	.	.	.	.	.	.	.
8r	.	.	.	.	.	.	.	.	.	.	.	.	.	.	.	.	.	.
8r	.	8D\	.	8D/	.	.	.	.	.	8b\	-nym	.	.	.	.	.	.	.
=4	=4	=4	=4	=4	=4	=4	=4	=4	=4	=4	=4	=4	=4	=4	=4	=4	=4	=4
4r	.	8GG/	.	8G/	.	8r	.	8r	.	4b\	us-	.	4r	.	2.ryy	.	2.r	.
.	.	4D\	.	[<4D/	.	8r	.	8r	.	.	.	.	.	.	.	.	.	.
8r	.	.	.	.	.	[<8B/	.	[<8g/	.	8dd\	-ta	.	8r	.	.	.	.	.
8D\	.	4DD/	.	4D/]	.	4.B/]	.	4.g/]	.	4dd\	twe,	.	8r	.	.	.	.	.
8r	.	.	.	.	.	.	.	.	.	.	.	.	8r	.	.	.	.	.
!	!	!	!	!	!	!	!	!	!	!	!	!	!	!LO:DY:b:rj	!	!	!	!
8r	.	8D\	.	8D/	.	.	.	.	.	8dd\	Na-	.	8BX/	p	.	.	.	.
!!LO:LB:g=original
=5	=5	=5	=5	=5	=5	=5	=5	=5	=5	=5	=5	=5	=5	=5	=5	=5	=5	=5
4r	.	8GG/	.	8G/	.	8r	.	8r	.	4ff#\	-po-	.	(>2.A#X/	.	2.ryy	.	2.ryy	.
.	.	4C#X/	.	[<4C#X/	.	8r	<	8r	.	.	.	.	.	.	.	.	.	.
8r	.	.	.	.	.	[<8A#X/	[[	[<8g/	.	8ee\	-jem	.	.	.	.	.	.	.
8C#X/	.	4CC#X/	.	4C#/]	.	4.A#/]	>]	4.g/]	.	8r	.	.	.	.	.	.	.	.
8r	.	.	.	.	.	.	.	.	.	8dd\	twe	.	.	.	.	.	.	.
8r	.	8E\	.	8E/	.	.	.	.	.	8cc#X\	spoj-	.	.	.	.	.	.	.
=6	=6	=6	=6	=6	=6	=6	=6	=6	=6	=6	=6	=6	=6	=6	=6	=6	=6	=6
4r	.	8GG/	.	8G/	.	8r	.	8r	.	4ee\	-rze-	.	[>4.BX/)	.	2.ryy	.	2.ryy	.
.	.	4D\	.	[<4D/	.	8r	.	8r	.	.	.	.	.	.	.	.	.	.
8r	.	.	.	.	.	[8B/	.	[<8g/	.	8dd\	-nie	.	.	.	.	.	.	.
8D\	.	4DD/	.	4D/]	.	4.B/]	.	4.g/]	.	8r	.	.	8B/]	.	.	.	.	.
8r	.	.	.	.	.	.	.	.	.	8r	.	.	8r	.	.	.	.	.
8r	.	8D\	.	8D/	.	.	.	.	.	8dd\	za	.	8r	.	.	.	.	.
=7	=7	=7	=7	=7	=7	=7	=7	=7	=7	=7	=7	=7	=7	=7	=7	=7	=7	=7
4r	.	8AA/	.	8A/	.	8r	.	8r	.	4dd\	u-	.	2.ryy	.	4r	.	2.ryy	.
.	.	4D\	.	[<4D/	.	8r	.	8r	.	.	.	.	.	.	.	.	.	.
8r	.	.	.	.	.	[8c/	.	[<8f#/	.	8g#X/	-śmiech	.	.	.	8r	.	.	.
8D\	.	4DD/	.	4D/]	.	4.c/]	.	4.f#/]	.	4a/	twój,	.	.	.	8r	.	.	.
!	!	!	!	!	!	!	!	!	!	!	!	!	!	!	!	!LO:DY:b	!	!
8r	.	.	.	.	.	.	.	.	.	.	.	.	.	.	[>4dd\	p	.	.
8r	.	8D\	.	8D/	.	.	.	.	.	8a#X/	świat	.	.	.	.	.	.	.
=8	=8	=8	=8	=8	=8	=8	=8	=8	=8	=8	=8	=8	=8	=8	=8	=8	=8	=8
4r	.	8GG/	.	8G/	.	8r	.	8r	.	4b\	u-	.	2.ryy	.	4.dd\]	.	2.ryy	.
.	.	4D\	.	4D/	.	8r	.	8r	.	.	.	.	.	.	.	.	.	.
8r	.	.	.	.	.	[8B/	.	[<8g/	.	8g/	-gnie	.	.	.	.	.	.	.
8E\	.	4EE/	.	4E/	.	4.B/]	.	4.g/]	.	4g/	się	.	.	.	[>4.gg\	.	.	.
8r	.	.	.	.	.	.	.	.	.	.	.	.	.	.	.	.	.	.
8r	.	8E\	.	8E/	.	.	.	.	.	8f#/	i	.	.	.	.	.	.	.
!!LO:PB:g=original
=9	=9	=9	=9	=9	=9	=9	=9	=9	=9	=9	=9	=9	=9	=9	=9	=9	=9	=9
4r	.	8C/	.	8c\	.	8r	.	8r	.	8f#/	sko-	.	2.ryy	.	4.gg\_>	.	2.ryy	.
.	.	4G\	.	4G/	.	8r	.	8r	.	8e/	-na	.	.	.	.	.	.	.
8r	.	.	.	.	.	[8c/	.	[<8e/	.	8r	.	.	.	.	.	.	.	.
8A\	.	4AA/	.	4A/	.	4.c/]	.	4.e/]	.	8e/	za	.	.	.	(>8gg\L]	.	.	.
8r	.	.	.	.	.	.	.	.	.	8f#/	u-	.	.	.	8ff#\	.	.	.
8r	.	8A\	.	8A/	.	.	.	.	.	8g/	-ści-	.	.	.	8ee\J	.	.	.
=10	=10	=10	=10	=10	=10	=10	=10	=10	=10	=10	=10	=10	=10	=10	=10	=10	=10	=10
4r	.	8D\	.	8d\	.	8r	.	8r	.	4b\	-śnie-	.	2.ryy	.	4dd\)	.	4r	.
.	.	4A\	.	4A/	.	8r	.	8r	.	.	.	.	.	.	.	.	.	.
8r	.	.	.	.	.	[8c/	.	[<8f#/	.	8a/	-nie	.	.	.	8r	.	8r	.
!	!	!	!	!	!	!	!	!	!	!	!	!	!	!	!	!	!	!LO:DY:b
8D\	.	4DD/	.	4d\	.	4.c/]	.	4.f#/]	.	8r	.	.	.	.	4.ryy	.	16r	p
!	!	!	!	!	!	!	!	!	!	!	!	!	!	!	!	!	!	!LO:HP:b
.	.	.	.	.	.	.	.	.	.	.	.	.	.	.	.	.	16dd'>\LL	<
8r	.	.	.	.	.	.	.	.	.	8r	.	.	.	.	.	.	16ee'>\	.
.	.	.	.	.	.	.	.	.	.	.	.	.	.	.	.	.	16ff#'>\	.
8r	.	8r	.	8r	.	.	.	.	.	8d/	Lecz	.	.	.	.	.	16gg'>\	.
.	.	.	.	.	.	.	.	.	.	.	.	.	.	.	.	.	16aa'>\JJ	.
=11	=11	=11	=11	=11	=11	=11	=11	=11	=11	=11	=11	=11	=11	=11	=11	=11	=11	=11
!	!	!	!LO:DY:b	!	!LO:DY:b	!	!	!	!	!	!	!	!	!	!	!	!	!
4r	.	8GG/	p	8G/	p	8r	.	8r	.	4g/	że	.	2.ryy	.	2.ryy	.	(16bb\LL	.
.	.	.	.	.	.	.	.	.	.	.	.	.	.	.	.	.	16ddd\JJ)	[
!	!	!	!LO:HP:b	!	!LO:HP:b	!	!	!	!	!	!	!	!	!	!	!	!	!
!	!	!	!	!	!	!	!	!	!LO:DY:b:rj	!	!	!	!	!	!	!	!	!
.	.	4D\	<	[>4D/	<	8r	<	8r	p <	.	.	.	.	.	.	.	8r	.
8r	.	.	.	.	.	[8B/	[[	[>8g/	[[	8a/	ja	.	.	.	.	.	8r	.
8D\	.	4DD/	.	4D/]	.	4.B/]	>]	4.g\]	>]	4a/	czę-	.	.	.	.	.	4r	.
8r	.	.	.	.	.	.	.	.	.	.	.	.	.	.	.	.	.	.
8r	.	8D\	.	8D/	.	.	.	.	.	8b\	-sto	.	.	.	.	.	8r	.
=12	=12	=12	=12	=12	=12	=12	=12	=12	=12	=12	=12	=12	=12	=12	=12	=12	=12	=12
4r	.	8GG/	.	8G/	.	8r	.	8r	.	16b\	z świa-	.	2.ryy	.	2.ryy	.	2.ryy	.
.	.	.	[	.	.	.	.	.	.	16dd\	-ta	.	.	.	.	.	.	.
.	.	4D\	.	4D/	[	8r	.	8r	.	[>4gg\	drwię,	.	.	.	.	.	.	.
8r	.	.	.	.	.	(<8B/	.	(<8g/	.	.	.	.	.	.	.	.	.	.
!	!	!	!LO:DY:b	!	!LO:DY:b	!	!LO:DY:b	!	!LO:DY:b	!	!	!	!	!	!	!	!	!
8B\	.	4BB;>/	sf	4G;>/	sf	4G;>/)	sf	4d;>/)	sf	8gg;>\]	.	.	.	.	.	.	.	.
8r;	.	.	.	.	.	.	.	.	.	8r	.	.	.	.	.	.	.	.
!	!	!	!LO:DY:b	!	!LO:DY:b:rj	!	!LO:DY:b:rj	!	!LO:DY:b:rj	!	!	!	!	!	!	!	!	!
8r	.	8BBB/	p	8B/	p	8A/	p	8d#X/	p	8ff#\	i	.	.	.	.	.	.	.
!!LO:LB:g=original
=13	=13	=13	=13	=13	=13	=13	=13	=13	=13	=13	=13	=13	=13	=13	=13	=13	=13	=13
4r	.	8EE/	.	4.B\	.	(<4.G#X/	.	(<4e/	.	4ee\	pus-	.	2.ryy	.	2.ryy	.	2.ryy	.
.	.	4E\	.	.	.	.	.	.	.	.	.	.	.	.	.	.	.	.
8r	.	.	.	.	.	.	.	8dn/	.	8dd\	-te	.	.	.	.	.	.	.
8r	.	4GG#X/	.	4.E/	.	8c/)	.	4c/)	.	8r	.	.	.	.	.	.	.	.
!LO:TX:b:Bi:t=arco	!	!	!	!	!	!	!	!	!	!	!	!	!	!	!	!	!	!
(<4GG#X/	p	.	.	.	.	8r	.	.	.	8dd\	mam	.	.	.	.	.	.	.
.	.	8r	.	.	.	8r	.	(<8B/	.	8cc\	kie-	.	.	.	.	.	.	.
=14	=14	=14	=14	=14	=14	=14	=14	=14	=14	=14	=14	=14	=14	=14	=14	=14	=14	=14
8AA/)	.	4r	.	[<4.E/	.	4r	.	4d/	.	4dd\	-sze-	.	2.ryy	.	2.ryy	.	2.ryy	.
[>4A\	.	.	.	.	.	.	.	.	.	.	.	.	.	.	.	.	.	.
.	.	8r	.	.	.	8r	.	[<8c/)	.	8cc\	-nie	.	.	.	.	.	.	.
4A\]	.	4CC/	.	4E/]	.	4r	.	(<8c/L]	.	8r	.	.	.	.	.	.	.	.
.	.	.	.	.	.	.	.	8e/J)	.	8r;>	.	.	.	.	.	.	.	.
8r;>	.	8r;>	.	8r;>	.	8r;	.	8r;>	.	8ee\	za	.	.	.	.	.	.	.
=15	=15	=15	=15	=15	=15	=15	=15	=15	=15	=15	=15	=15	=15	=15	=15	=15	=15	=15
4r	.	8AA/	.	(>8A/	.	8r	.	8r	.	4ee\	wi-	.	2.ryy	.	2.ryy	.	2.ryy	.
.	.	4E\	.	4E/	.	8r	.	8r	.	.	.	.	.	.	.	.	.	.
8r	.	.	.	.	.	[<8c/	.	[<8a/	.	8a/	-na	.	.	.	.	.	.	.
!LO:TX:b:iB:t=pizo	!	!	!	!	!	!	!	!	!	!	!	!	!	!	!	!	!	!
8C/	.	4CC/	.	4c\	.	4.c/]	.	4.a/]	.	4a/	dzban	.	.	.	.	.	.	.
8r	.	.	.	.	.	.	.	.	.	.	.	.	.	.	.	.	.	.
8r	.	8E\	.	8E/)	.	.	.	.	.	8b\	ja	.	.	.	.	.	.	.
=16	=16	=16	=16	=16	=16	=16	=16	=16	=16	=16	=16	=16	=16	=16	=16	=16	=16	=16
4r	.	8AA/	.	(8A/	.	8r	.	8r	.	4cc\	od-	.	4r	.	2.ryy	.	2.ryy	.
.	.	4E\	.	4>E/	.	8r	.	8r	.	.	.	.	.	.	.	.	.	.
8r	.	.	.	.	.	[<8c/	.	[<8g/	.	8e/	-dam	.	8r	.	.	.	.	.
.	.	.	.	.	.	.	.	.	.	(<8qe/	.	.	.	.	.	.	.	.
8C/	.	4CC/	.	4c\	.	4.c/]	.	4.g/]	.	4.g/)	cię	.	8r	.	.	.	.	.
!	!	!	!	!	!	!	!	!	!	!	!	!	!	!LO:DY:b:rj	!	!	!	!
8r	.	.	.	.	.	.	.	.	.	.	.	.	[>4c/	p	.	.	.	.
8r	.	8E\	.	8E/)	.	.	.	.	.	.	.	.	.	.	.	.	.	.
!!LO:PB:g=original
=17	=17	=17	=17	=17	=17	=17	=17	=17	=17	=17	=17	=17	=17	=17	=17	=17	=17	=17
4r	.	8D\	.	2.E/	.	8r	.	8r	.	8f#/	i	.	(>2.c/]	.	2.ryy	.	2.ryy	.
!	!	!	!	!	!	!	!	!	!LO:DY:b:rj	!	!	!	!	!	!	!	!	!
.	.	[<4DD/	.	.	.	[<4c/	.	[<4f#/	sf	8f#/	po	.	.	.	.	.	.	.
8r	.	.	.	.	.	.	.	.	.	8e/	zni-	.	.	.	.	.	.	.
.	.	.	.	.	.	.	.	.	.	(<8qd/	.	.	.	.	.	.	.	.
8D\	.	4.DD;</]	.	.	.	4.c;/]	.	4.f#;>/]	.	4cc;>\)	-żo-	.	.	.	.	.	.	.
8r;	.	.	.	.	.	.	.	.	.	.	.	.	.	.	.	.	.	.
8r	.	.	.	.	.	.	.	.	.	8b\	-nej	.	.	.	.	.	.	.
=18	=18	=18	=18	=18	=18	=18	=18	=18	=18	=18	=18	=18	=18	=18	=18	=18	=18	=18
!	!	!	!	!	!	!	!	!	!	!	!	!	!LO:N:acc=#	!	!	!	!	!
4r	.	8GG/	.	(<8G/	.	8r	.	8r	.	8b\	ce-	.	4B/)	.	2.ryy	.	2.ryy	.
.	.	[>4D\	.	[>4E/)	.	8r	.	8r	.	8g/	-nie!	.	.	.	.	.	.	.
8r	.	.	.	.	.	[<8B/	.	[<8g/	.	8r	.	.	8r	.	.	.	.	.
!LO:TX:b:Bi:t=arco.:rj	!	!	!	!	!	!	!	!	!	!	!	!	!	!	!	!	!	!
4.GG/	.	4.D\]	.	4.E/]	.	4.B/]	.	4.g/]	.	4r	.	.	4r	.	.	.	.	.
.	.	.	.	.	.	.	.	.	.	8r	.	.	8r	.	.	.	.	.
==	==	==	==	==	==	==	==	==	==	==	==	==	==	==	==	==	==	==
*-	*-	*-	*-	*-	*-	*-	*-	*-	*-	*-	*-	*-	*-	*-	*-	*-	*-	*-
!!title: @{OTL};
!!!RDF**kern: > = above
!!!RDF**kern: < = below
!!!RDF**kern: | = vertical stroke
!!!RDF**kern: N = linked
!!!RDF**kern: i = editorial accidental
!!!RDF**kern: l = terminal long
!!!ENC: Anastazja Marusiak
!!!END: 2021-11-01
!!!EED: Wojciech Jakubiak-Danek
!!!EST: 2021-11-04
!!!URL-scan: http://repozytorium.nifc.pl/skany/pl-wtm-nut--r2545
!!!ONB-nifc:
